src/svg/discord.svg

<svg height="1000" width="875.0" xmlns="http://www.w3.org/2000/svg">
    <path d="m580.5 475c0 30.5-22.5 55.5-51 55.5-28 0-51-25-51-55.5s22.5-55.5 51-55.5c28.5 0 51 25 51 55.5z m-233.5-55.5c28.5 0 51.5 25 51 55.5 0 30.5-22.5 55.5-51 55.5-28 0-51-25-51-55.5s22.5-55.5 51-55.5z m528-316.5v897c-126-111.3-85.7-74.5-232-210.5l26.5 92.5h-567c-56.5 0-102.5-46-102.5-103v-676c0-57 46-103 102.5-103h670c56.5 0 102.5 46 102.5 103z m-142.5 474c0-161-72-291.5-72-291.5-72-54-140.5-52.5-140.5-52.5l-7 8c85 26 124.5 63.5 124.5 63.5-118.8-65.1-258.3-65.1-373.5-14.5-18.5 8.5-29.5 14.5-29.5 14.5s41.5-39.5 131.5-65.5l-5-6s-68.5-1.5-140.5 52.5c0 0-72 130.5-72 291.5 0 0 42 72.5 152.5 76 0 0 18.5-22.5 33.5-41.5-63.5-19-87.5-59-87.5-59 7.4 5.1 19.5 11.8 20.5 12.5 84.4 47.3 204.3 62.7 312 17.5 17.5-6.5 37-16 57.5-29.5 0 0-25 41-90.5 59.5 15 19 33 40.5 33 40.5 110.5-3.5 153-76 153-76z" />
  </svg>

<svg height="1000" width="875" xmlns="http://www.w3.org/2000/svg"><path d="M580.5 475c0 30.5 -22.5 55.5 -51 55.5 -28 0 -51 -25 -51 -55.5s22.5 -55.5 51 -55.5 51 25 51 55.5zM347 419.5c-28.5 0 -51 25 -51 55.5s23 55.5 51 55.5c28.5 0 51 -25 51 -55.5 .5 -30.5 -22.5 -55.5 -51 -55.5zM875 103v897C749 888.7 789.3 925.5 643 789.5l26.5 92.5h-567C46 882 0 836 0 779V103C0 46 46 0 102.5 0h670C829 0 875 46 875 103zM732.5 577c0 -161 -72 -291.5 -72 -291.5C588.5 231.5 520 233 520 233l-7 8c85 26 124.5 63.5 124.5 63.5C518.7 239.4 379.2 239.4 264 290c-18.5 8.5 -29.5 14.5 -29.5 14.5S276 265 366 239l-5 -6s-68.5 -1.5 -140.5 52.5c0 0 -72 130.5 -72 291.5 0 0 42 72.5 152.5 76 0 0 18.5 -22.5 33.5 -41.5 -63.5 -19 -87.5 -59 -87.5 -59 7.4 5.1 19.5 11.8 20.5 12.5 84.4 47.3 204.3 62.7 312 17.5 17.5 -6.5 37 -16 57.5 -29.5 0 0 -25 41 -90.5 59.5 15 19 33 40.5 33 40.5 110.5 -3.5 153 -76 153 -76z"/></svg>
